X: 37375
T: Sleeping Giant Two-Step
R: polka
M: 2/4
K: Dmajor
Ad|:"D"f>g fd|A z F z|"A7"GG/G/ GF|E3 F|
"A7"GG/G/ GF|EA, DE|"D"F>G FE|F2 Ad|
"D"f>g fd|A z F z|"A7"GG/G/ GF|E3 F|
"A7"GG/G/ GA|c>A Bc|"D"d2 d>d|1 d2 Ad:|2 dd "D7"c=c||
|:"G"B2 d2|g3 g|"D"f>g fe|AF Ad|
"A7"e2 e>f|ec BA|"D"dd FG|Ad "D7"c=c|
"G"B2 d2|g3 g|"D"f>g fe|"D"AF "B7"GF|
"Em7"E3 F|"A7"G>A Bc|"D"d2 d>d|1 "D"dd "D7"c=c:|2 "D"d3||

